packages/core/src/svgs/csix.svg

<svg width="24" height="24" viewBox="0 0 24 24" fill="none" xmlns="http://www.w3.org/2000/svg">
<g clip-path="url(#clip0_31_8816)">
<path d="M0 0H24V24H0V0Z" fill="url(#paint0_linear_31_8816)"/>
<path d="M18.4287 8.78557C18.4287 7.93309 18.09 7.11553 17.4872 6.51273C16.8844 5.90994 16.0669 5.57129 15.2144 5.57129H8.78582C7.93334 5.57129 7.11577 5.90994 6.51298 6.51273C5.91018 7.11553 5.57153 7.93309 5.57153 8.78557V15.2141C5.57153 16.0666 5.91018 16.8842 6.51298 17.487C7.11577 18.0898 7.93334 18.4284 8.78582 18.4284H15.2144C16.0669 18.4284 16.8844 18.0898 17.4872 17.487C18.09 16.8842 18.4287 16.0666 18.4287 15.2141V8.78557Z" fill="url(#paint1_linear_31_8816)"/>
<path d="M17.5287 17.4428C16.4872 17.7856 15.2358 17.7256 14.5758 17.6742C11.5758 17.447 10.4701 16.4528 10.0758 15.5913C9.67296 14.6999 9.87868 13.7485 10.5044 13.2856C11.9187 12.2442 12.9687 13.9628 12.9687 13.9628C13.2489 13.8767 13.4995 13.7139 13.6919 13.4927C13.8843 13.2715 14.0109 13.0008 14.0572 12.7113C14.1251 12.3525 14.0612 11.9812 13.8772 11.6656C13.6115 11.2285 13.1915 11.0013 13.1915 11.0013C13.5344 9.53561 11.4172 8.77704 10.2601 8.36133C10.0758 8.29704 9.91725 8.24133 9.79725 8.1899C9.1717 7.89028 8.63538 7.43227 8.24153 6.86133C7.96725 7.84704 8.86296 8.89704 8.86296 8.89704C8.10868 8.24133 6.08582 7.9799 5.68725 7.93276C5.61062 8.21057 5.5717 8.49743 5.57153 8.78561V15.2142C5.57153 16.0667 5.91018 16.8842 6.51298 17.487C7.11577 18.0898 7.93334 18.4285 8.78582 18.4285H15.2144C16.123 18.4285 16.9458 18.0513 17.5287 17.4428Z" fill="white"/>
<path d="M17.8157 17.1002C16.3117 17.41 14.7678 17.4766 13.2428 17.2974C12.54 17.2116 9.98568 16.7188 9.98568 14.7516C9.98568 13.0931 11.5628 12.7074 12.9685 13.9631C12.9685 13.9631 12.9685 13.3074 12.5914 12.7074C12.3929 12.3944 12.116 12.1388 11.7882 11.9659C11.4605 11.793 11.0932 11.7088 10.7228 11.7216C10.3004 11.7444 9.89246 11.8838 9.54445 12.1244C9.19643 12.365 8.92192 12.6973 8.75139 13.0845C8.75139 13.0845 8.49425 12.0088 9.16711 11.2974C9.16711 11.2974 6.80997 11.8845 7.22568 14.5031C7.25568 14.7002 7.43997 15.5445 7.99282 16.2602C8.76425 17.2631 9.70711 17.9316 11.3057 18.2659C11.6057 18.3302 11.9357 18.3859 12.2957 18.4288H15.2143C15.722 18.4285 16.2224 18.308 16.6746 18.0771C17.1268 17.8462 17.5178 17.5114 17.8157 17.1002Z" fill="#FFEDDC"/>
<path d="M12.3729 10.8771L12.0814 11.2456C12.0814 11.2456 11.7814 10.6113 11.2114 10.0542L12.3729 10.8771Z" fill="#F9A14C"/>
</g>
<defs>
<linearGradient id="paint0_linear_31_8816" x1="4.46571" y1="4.16143" x2="29.2071" y2="32.58" gradientUnits="userSpaceOnUse">
<stop stop-color="#1A1E21"/>
<stop offset="1" stop-color="#06060A"/>
</linearGradient>
<linearGradient id="paint1_linear_31_8816" x1="17.1944" y1="6.95129" x2="7.97582" y2="15.9213" gradientUnits="userSpaceOnUse">
<stop stop-color="#FF9133"/>
<stop offset="1" stop-color="#FF2905"/>
</linearGradient>
<clipPath id="clip0_31_8816">
<rect width="24" height="24" fill="white"/>
</clipPath>
</defs>
</svg>

<svg xmlns="http://www.w3.org/2000/svg" width="24" height="24" fill="none" viewBox="0 0 24 24"><g clip-path="url(#a)"><path fill="url(#b)" d="M0 0h24v24H0z"/><path fill="url(#c)" d="M18.429 8.786a3.214 3.214 0 0 0-3.215-3.215H8.786a3.214 3.214 0 0 0-3.214 3.215v6.428a3.214 3.214 0 0 0 3.214 3.214h6.428a3.214 3.214 0 0 0 3.215-3.214z"/><path fill="#fff" d="M17.529 17.443c-1.042.343-2.293.283-2.953.231-3-.227-4.106-1.221-4.5-2.083-.403-.891-.197-1.842.428-2.305 1.415-1.042 2.465.677 2.465.677a1.57 1.57 0 0 0 1.088-1.252c.068-.359.004-.73-.18-1.045-.266-.437-.686-.665-.686-.665.343-1.465-1.774-2.224-2.93-2.64a8 8 0 0 1-.464-.171A4 4 0 0 1 8.242 6.86c-.275.986.621 2.036.621 2.036-.754-.656-2.777-.917-3.176-.964a3.2 3.2 0 0 0-.115.853v6.428a3.214 3.214 0 0 0 3.214 3.214h6.428c.909 0 1.732-.377 2.315-.985"/><path fill="#FFEDDC" d="M17.816 17.1a14.4 14.4 0 0 1-4.573.197c-.703-.085-3.257-.578-3.257-2.545 0-1.659 1.577-2.045 2.983-.789 0 0 0-.656-.378-1.256a2.13 2.13 0 0 0-1.868-.985 2.29 2.29 0 0 0-1.972 1.363s-.257-1.076.416-1.788c0 0-2.357.587-1.941 3.206.03.197.214 1.041.767 1.757.771 1.003 1.714 1.672 3.313 2.006q.45.097.99.163h2.918a3.22 3.22 0 0 0 2.602-1.329"/><path fill="#F9A14C" d="m12.373 10.877-.292.369s-.3-.635-.87-1.192z"/></g><defs><linearGradient id="b" x1="4.466" x2="29.207" y1="4.161" y2="32.58" gradientUnits="userSpaceOnUse"><stop stop-color="#1A1E21"/><stop offset="1" stop-color="#06060A"/></linearGradient><linearGradient id="c" x1="17.194" x2="7.976" y1="6.951" y2="15.921" gradientUnits="userSpaceOnUse"><stop stop-color="#FF9133"/><stop offset="1" stop-color="#FF2905"/></linearGradient><clipPath id="a"><path fill="#fff" d="M0 0h24v24H0z"/></clipPath></defs></svg>
